components/icon/svg/24/journey_round-trip.svg

<?xml version="1.0" encoding="UTF-8"?>
<svg width="24px" height="24px" viewBox="0 0 24 24" version="1.1" xmlns="http://www.w3.org/2000/svg" xmlns:xlink="http://www.w3.org/1999/xlink">
    <!-- Generator: Sketch 64 (93537) - https://sketch.com -->
    <title>ic-db_journey_round-trip_24</title>
    <desc>Created with Sketch.</desc>
    <g id="Symbols:Icon" stroke="none" stroke-width="1" fill="none" fill-rule="evenodd">
        <g id="24dp-Icon/Journey/Round-Trip" fill="#282D37">
            <path d="M5,3 C6.625,3 8,4.3438 8,6 C8,7.3125 7.1562,8.4062 6,8.8125 L6,8.8125 L6,15 C6,16.0938 6.9062,17 8,17 L8,17 L10.5938,17 L9.2812,15.7188 C9.0625,15.5 9,15.25 9,15 C9,14.4062 9.4375,14 10,14 C10.25,14 10.5,14.0625 10.7188,14.2812 L10.7188,14.2812 L13.7188,17.2812 C13.9375,17.5 14,17.75 14,18 C14,18.25 13.9375,18.5 13.7188,18.7188 L13.7188,18.7188 L10.7188,21.7188 C10.5312,21.9062 10.25,22 10,22 C9.4062,22 9,21.5625 9,21 C9,20.75 9.0625,20.4688 9.2812,20.2812 L9.2812,20.2812 L10.5938,19 L8,19 C5.7812,19 4,17.2188 4,15 L4,15 L4,8.8125 C2.8438,8.4062 2,7.3125 2,6 C2,4.3438 3.3438,3 5,3 Z M5,5 C4.4375,5 4,5.4375 4,6 C4,6.5625 4.4375,7 5,7 C5.5625,7 6,6.5625 6,6 C6,5.4375 5.5625,5 5,5 Z M14,2 C14.5938,2 15,2.4375 15,3 C15,3.25 14.9375,3.5312 14.7188,3.7188 L14.7188,3.7188 L13.4062,5 L16,5 C18.2188,5 20,6.7812 20,9 L20,9 L20,15.1875 C21.1562,15.5938 22,16.6875 22,18 C22,19.6562 20.6562,21 19,21 C17.0938,21 16,19.5625 16,18 C16,16.6875 16.8438,15.5938 18,15.1875 L18,15.1875 L18,9 C18,7.9062 17.0938,7 16,7 L16,7 L13.4062,7 L14.7188,8.2812 C14.9375,8.5 15,8.75 15,9 C15,9.5938 14.5625,10 14,10 C13.75,10 13.5,9.9375 13.2812,9.7188 L13.2812,9.7188 L10.2812,6.7188 C10.0625,6.5 10,6.25 10,6 C10,5.75 10.0625,5.5 10.2812,5.2812 L10.2812,5.2812 L13.2812,2.2812 C13.5,2.0625 13.75,2 14,2 Z M19,17 C18.4375,17 18,17.4375 18,18 C18,18.5625 18.4375,19 19,19 C19.5625,19 20,18.5625 20,18 C20,17.4375 19.5625,17 19,17 Z" id="🎨-Color"></path>
        </g>
    </g>
</svg>

<svg width="24" height="24" xmlns="http://www.w3.org/2000/svg"><path d="M5 3c1.625 0 3 1.344 3 3a2.98 2.98 0 01-2 2.813V15c0 1.094.906 2 2 2h2.594L9.28 15.719A.962.962 0 019 15c0-.594.438-1 1-1 .25 0 .5.063.719.281l3 3A.962.962 0 0114 18c0 .25-.063.5-.281.719l-3 3A1.044 1.044 0 0110 22c-.594 0-1-.438-1-1 0-.25.063-.531.281-.719L10.594 19H8c-2.219 0-4-1.781-4-4V8.812A2.98 2.98 0 012 6a3 3 0 013-3zm0 2c-.563 0-1 .438-1 1 0 .563.438 1 1 1 .563 0 1-.438 1-1 0-.563-.438-1-1-1zm9-3c.594 0 1 .438 1 1 0 .25-.063.531-.281.719L13.406 5H16c2.219 0 4 1.781 4 4v6.188c1.156.406 2 1.5 2 2.812a3 3 0 01-3 3c-1.906 0-3-1.438-3-3a2.98 2.98 0 012-2.813V9c0-1.094-.906-2-2-2h-2.594l1.313 1.281A.962.962 0 0115 9c0 .594-.438 1-1 1-.25 0-.5-.063-.719-.281l-3-3A.962.962 0 0110 6c0-.25.063-.5.281-.719l3-3A.962.962 0 0114 2zm5 15c-.563 0-1 .438-1 1 0 .563.438 1 1 1 .563 0 1-.438 1-1 0-.563-.438-1-1-1z" fill="#282D37" fill-rule="evenodd"/></svg>
